X: 19177
T: Is The Big Man Within?
R: slip jig
M: 9/8
K: Gmajor
M:6/8
|:Bdd def|g2g fed|ege edB|ded A2A|
B2d def|gag fed|ege edB|1 dBD G2d:|2 dBD G2B||
M:9/8
|:BAB c2A A2B|BAB d2G G2B|
BAB c2A A2f|1 gfe d2G G2B:|2 gfe d2G G3||

